X:12637
T:Paddy Fahys reel (number 3)
M:4/4
L:1/8
C:Paddy Fahy
K:A
AGED B,CDB, | E2B,E GEBG | AGEF GABc | ~d2cB AcBG |
AGED B,CDB, | E2B,E GEBG | AGEF GABA | GEDB, A,2(3EFG :||:
A2 ce dcBG | AGED B,CDB, | EA~A2 EAce | dcBG EAA2 | | EA~A2 EAce | dcBG EAA2 |